src/pos-icons/image-filter-vintage.svg

<svg height="24" viewBox="0 0 24 24" width="24" xmlns="http://www.w3.org/2000/svg"><path d="m12 16a4 4 0 0 1 -4-4 4 4 0 0 1 4-4 4 4 0 0 1 4 4 4 4 0 0 1 -4 4m6.7-3.6c-.28-.16-.57-.29-.86-.4.29-.11.58-.24.86-.4 1.92-1.1 2.99-3.1 3-5.19-1.79-1.03-4.07-1.11-6 0-.28.16-.54.35-.78.54.05-.31.08-.63.08-.95 0-2.22-1.21-4.15-3-5.19-1.79 1.04-3 2.97-3 5.19 0 .32.03.64.08.95-.24-.2-.5-.39-.78-.55-1.92-1.11-4.2-1.03-6 0 0 2.07 1.07 4.1 3 5.19.28.16.57.29.86.41-.29.1-.58.23-.86.39-1.92 1.11-2.99 3.11-3 5.19 1.79 1.03 4.07 1.11 6 0 .28-.16.54-.35.78-.54-.05.32-.08.64-.08.96 0 2.22 1.21 4.15 3 5.19 1.79-1.04 3-2.97 3-5.19 0-.32-.03-.64-.08-.95.24.2.5.38.78.54 1.92 1.11 4.2 1.03 6 0-.01-2.09-1.08-4.09-3-5.19z"/></svg>

<?xml version="1.0" encoding="UTF-8"?><!DOCTYPE svg PUBLIC "-//W3C//DTD SVG 1.1//EN" "http://www.w3.org/Graphics/SVG/1.1/DTD/svg11.dtd"><svg xmlns="http://www.w3.org/2000/svg" xmlns:xlink="http://www.w3.org/1999/xlink" version="1.1" id="mdi-image-filter-vintage" width="24" height="24" viewBox="0 0 24 24"><path d="M12,16A4,4 0 0,1 8,12A4,4 0 0,1 12,8A4,4 0 0,1 16,12A4,4 0 0,1 12,16M18.7,12.4C18.42,12.24 18.13,12.11 17.84,12C18.13,11.89 18.42,11.76 18.7,11.6C20.62,10.5 21.69,8.5 21.7,6.41C19.91,5.38 17.63,5.3 15.7,6.41C15.42,6.57 15.16,6.76 14.92,6.95C14.97,6.64 15,6.32 15,6C15,3.78 13.79,1.85 12,0.81C10.21,1.85 9,3.78 9,6C9,6.32 9.03,6.64 9.08,6.95C8.84,6.75 8.58,6.56 8.3,6.4C6.38,5.29 4.1,5.37 2.3,6.4C2.3,8.47 3.37,10.5 5.3,11.59C5.58,11.75 5.87,11.88 6.16,12C5.87,12.1 5.58,12.23 5.3,12.39C3.38,13.5 2.31,15.5 2.3,17.58C4.09,18.61 6.37,18.69 8.3,17.58C8.58,17.42 8.84,17.23 9.08,17.04C9.03,17.36 9,17.68 9,18C9,20.22 10.21,22.15 12,23.19C13.79,22.15 15,20.22 15,18C15,17.68 14.97,17.36 14.92,17.05C15.16,17.25 15.42,17.43 15.7,17.59C17.62,18.7 19.9,18.62 21.7,17.59C21.69,15.5 20.62,13.5 18.7,12.4Z" /></svg>
